img/icon__advantages-1.svg

<svg width="52" height="46" viewBox="0 0 52 46" fill="none" xmlns="http://www.w3.org/2000/svg">
<path fill-rule="evenodd" clip-rule="evenodd" d="M38.1875 28.5625V3.25C38.1875 2.50375 38.4837 1.78938 39.0106 1.26063C39.5394 0.733756 40.2537 0.4375 41 0.4375C41 0.4375 41 0.4375 41 1.375V0.4375C41.7463 0.4375 42.4606 0.733756 42.9894 1.26063C43.5163 1.78938 43.8125 2.50375 43.8125 3.25V28.5625H46.625C49.2144 28.5625 51.3125 30.6606 51.3125 33.25V37C51.3125 39.5894 49.2144 41.6875 46.625 41.6875H45.6875V42.625C45.6875 44.1775 44.4275 45.4375 42.875 45.4375C41.7294 45.4375 40.2706 45.4375 39.125 45.4375C37.5725 45.4375 36.3125 44.1775 36.3125 42.625V41.6875H15.6875V42.625C15.6875 44.1775 14.4275 45.4375 12.875 45.4375C11.7294 45.4375 10.2706 45.4375 9.125 45.4375C7.5725 45.4375 6.3125 44.1775 6.3125 42.625V41.6875H5.375C2.78562 41.6875 0.6875 39.5894 0.6875 37C0.6875 35.7925 0.6875 34.4575 0.6875 33.25C0.6875 30.6606 2.78562 28.5625 5.375 28.5625H8.1875V3.25C8.1875 2.50375 8.48375 1.78938 9.01062 1.26063C9.53937 0.733756 10.2537 0.4375 11 0.4375C11 0.4375 11 0.4375 11 1.375V0.4375C11.7463 0.4375 12.4606 0.733756 12.9894 1.26063C13.5163 1.78938 13.8125 2.50375 13.8125 3.25V28.5625H38.1875ZM43.8125 41.6875H38.1875V42.625C38.1875 43.1425 38.6075 43.5625 39.125 43.5625C40.2706 43.5625 41.7294 43.5625 42.875 43.5625C43.3925 43.5625 43.8125 43.1425 43.8125 42.625V41.6875ZM13.8125 41.6875H8.1875V42.625C8.1875 43.1425 8.6075 43.5625 9.125 43.5625C10.2706 43.5625 11.7294 43.5625 12.875 43.5625C13.3925 43.5625 13.8125 43.1425 13.8125 42.625V41.6875ZM46.625 30.4375H5.375C3.8225 30.4375 2.5625 31.6975 2.5625 33.25C2.5625 34.4575 2.5625 35.7925 2.5625 37C2.5625 38.5525 3.8225 39.8125 5.375 39.8125C14.4556 39.8125 37.5444 39.8125 46.625 39.8125C48.1775 39.8125 49.4375 38.5525 49.4375 37V33.25C49.4375 31.6975 48.1775 30.4375 46.625 30.4375ZM41 32.3125C39.4475 32.3125 38.1875 33.5725 38.1875 35.125C38.1875 36.6775 39.4475 37.9375 41 37.9375C42.5525 37.9375 43.8125 36.6775 43.8125 35.125C43.8125 33.5725 42.5525 32.3125 41 32.3125ZM33.5 32.3125C31.9475 32.3125 30.6875 33.5725 30.6875 35.125C30.6875 36.6775 31.9475 37.9375 33.5 37.9375C35.0525 37.9375 36.3125 36.6775 36.3125 35.125C36.3125 33.5725 35.0525 32.3125 33.5 32.3125ZM9.125 37.9375H24.125C24.6425 37.9375 25.0625 37.5175 25.0625 37C25.0625 36.4825 24.6425 36.0625 24.125 36.0625H9.125C8.6075 36.0625 8.1875 36.4825 8.1875 37C8.1875 37.5175 8.6075 37.9375 9.125 37.9375ZM41 34.1875C41.5175 34.1875 41.9375 34.6075 41.9375 35.125C41.9375 35.6425 41.5175 36.0625 41 36.0625C40.4825 36.0625 40.0625 35.6425 40.0625 35.125C40.0625 34.6075 40.4825 34.1875 41 34.1875ZM33.5 34.1875C34.0175 34.1875 34.4375 34.6075 34.4375 35.125C34.4375 35.6425 34.0175 36.0625 33.5 36.0625C32.9825 36.0625 32.5625 35.6425 32.5625 35.125C32.5625 34.6075 32.9825 34.1875 33.5 34.1875ZM9.125 34.1875H24.125C24.6425 34.1875 25.0625 33.7675 25.0625 33.25C25.0625 32.7325 24.6425 32.3125 24.125 32.3125H9.125C8.6075 32.3125 8.1875 32.7325 8.1875 33.25C8.1875 33.7675 8.6075 34.1875 9.125 34.1875ZM11.9375 28.5625V3.25C11.9375 3.00062 11.8381 2.76251 11.6637 2.58626C11.4875 2.41188 11.2494 2.3125 11 2.3125C10.7506 2.3125 10.5125 2.41188 10.3363 2.58626C10.1619 2.76251 10.0625 3.00062 10.0625 3.25V28.5625H11.9375ZM41.9375 28.5625V3.25C41.9375 3.00062 41.8381 2.76251 41.6637 2.58626C41.4875 2.41188 41.2494 2.3125 41 2.3125C40.7506 2.3125 40.5125 2.41188 40.3363 2.58626C40.1619 2.76251 40.0625 3.00062 40.0625 3.25V28.5625H41.9375ZM21.395 24.3063C22.7187 23.44 24.3012 22.9375 26 22.9375C27.6988 22.9375 29.2812 23.44 30.605 24.3063C31.0381 24.5894 31.6194 24.4675 31.9025 24.0344C32.1856 23.6012 32.0637 23.02 31.6306 22.7369C30.0125 21.6775 28.0775 21.0625 26 21.0625C23.9225 21.0625 21.9875 21.6775 20.3694 22.7369C19.9363 23.02 19.8144 23.6012 20.0975 24.0344C20.3806 24.4675 20.9619 24.5894 21.395 24.3063ZM19.8106 19.8006C21.6538 18.8106 23.7613 18.25 26 18.25C28.2387 18.25 30.3463 18.8106 32.1894 19.8006C32.6469 20.0444 33.215 19.8738 33.4588 19.4181C33.7044 18.9625 33.5319 18.3925 33.0763 18.1487C30.9688 17.0162 28.5594 16.375 26 16.375C23.4406 16.375 21.0312 17.0162 18.9237 18.1487C18.4681 18.3925 18.2956 18.9625 18.5413 19.4181C18.785 19.8738 19.3531 20.0444 19.8106 19.8006ZM18.275 15.3231C20.6131 14.1944 23.2325 13.5625 26 13.5625C28.7675 13.5625 31.3869 14.1944 33.725 15.3231C34.19 15.5481 34.7525 15.3513 34.9756 14.8863C35.2006 14.4194 35.0056 13.8588 34.5406 13.6338C31.9569 12.3869 29.06 11.6875 26 11.6875C22.94 11.6875 20.0431 12.3869 17.4594 13.6338C16.9944 13.8588 16.7994 14.4194 17.0244 14.8863C17.2475 15.3513 17.81 15.5481 18.275 15.3231Z" fill="#FF9999"/>
</svg>

<svg width="52" height="46" fill="none" xmlns="http://www.w3.org/2000/svg"><path fill-rule="evenodd" clip-rule="evenodd" d="M38.188 28.563V3.25c0-.746.296-1.46.823-1.99A2.818 2.818 0 0141 .438v.938-.938c.746 0 1.46.297 1.99.824.526.528.822 1.243.822 1.989v25.313h2.813a4.687 4.687 0 014.688 4.687V37a4.687 4.687 0 01-4.688 4.688h-.938v.937a2.814 2.814 0 01-2.812 2.813h-3.75a2.814 2.814 0 01-2.813-2.813v-.938H15.689v.938a2.814 2.814 0 01-2.813 2.813h-3.75a2.814 2.814 0 01-2.813-2.813v-.938h-.937A4.687 4.687 0 01.687 37v-3.75a4.687 4.687 0 014.688-4.688h2.813V3.25c0-.746.296-1.46.823-1.99A2.817 2.817 0 0111 .438v.938-.938c.746 0 1.46.297 1.99.824.526.528.822 1.243.822 1.989v25.313h24.376zm5.624 13.125h-5.624v.937c0 .517.42.938.937.938h3.75c.517 0 .938-.42.938-.938v-.938zm-30 0H8.189v.937c0 .517.42.938.937.938h3.75c.518 0 .938-.42.938-.938v-.938zm32.813-11.25H5.375a2.814 2.814 0 00-2.813 2.812V37a2.814 2.814 0 002.813 2.813h41.25A2.814 2.814 0 0049.438 37v-3.75a2.814 2.814 0 00-2.813-2.813zM41 32.313a2.814 2.814 0 000 5.624 2.814 2.814 0 000-5.624zm-7.5 0a2.814 2.814 0 000 5.624 2.814 2.814 0 000-5.624zM9.125 37.937h15a.938.938 0 000-1.874h-15a.938.938 0 000 1.874zM41 34.188a.938.938 0 110 1.876.938.938 0 010-1.876zm-7.5 0a.938.938 0 110 1.876.938.938 0 010-1.876zm-24.375 0h15a.938.938 0 000-1.874h-15a.938.938 0 000 1.874zm2.813-5.624V3.25c0-.25-.1-.487-.274-.664a.944.944 0 00-1.328 0 .944.944 0 00-.274.664v25.313h1.876zm30 0V3.25c0-.25-.1-.487-.274-.664a.944.944 0 00-1.328 0 .944.944 0 00-.273.664v25.313h1.874zm-20.543-4.257A8.381 8.381 0 0126 22.937c1.699 0 3.281.503 4.605 1.37a.938.938 0 001.026-1.57A10.245 10.245 0 0026 21.063c-2.078 0-4.012.614-5.63 1.674a.938.938 0 001.025 1.57zm-1.584-4.505A13.04 13.04 0 0126 18.25c2.239 0 4.346.56 6.19 1.55a.938.938 0 00.886-1.651A14.903 14.903 0 0026 16.375c-2.56 0-4.969.641-7.076 1.774a.937.937 0 10.887 1.652zm-1.536-4.478A17.717 17.717 0 0126 13.563c2.767 0 5.387.631 7.725 1.76a.937.937 0 00.816-1.69A19.596 19.596 0 0026 11.689c-3.06 0-5.957.699-8.54 1.946a.939.939 0 00.815 1.69z" fill="#F99"/></svg>
